assets/img/icon_refresh_.svg

<svg width="60" height="60" viewBox="0 0 60 60" fill="none" xmlns="http://www.w3.org/2000/svg">
<path d="M37.1163 59.1341C36.1953 59.1341 35.3302 58.5196 35.0791 57.5698C34.7721 56.4525 35.4419 55.3073 36.586 55C47.9163 52.0112 55.8139 41.7318 55.8139 30C55.8139 15.7542 44.2326 4.16201 30 4.16201C17.9163 4.16201 9.9907 11.2291 6.27907 15.5028H14.4837C15.6279 15.5028 16.5767 16.4525 16.5767 17.5978C16.5767 18.743 15.6558 19.7207 14.4837 19.7207H2.12093C1.9814 19.7207 1.73023 19.6927 1.53488 19.6369C1.28372 19.5531 1.06046 19.4413 0.865116 19.3017C0.613953 19.1341 0.418605 18.9106 0.27907 18.6592C0.139535 18.4078 0.027907 18.1006 0 17.7933C0 17.7095 0 17.6536 0 17.5698V4.88827C0 3.74302 0.948837 2.7933 2.09302 2.7933C3.23721 2.7933 4.18605 3.74302 4.18605 4.88827V11.5642C8.73488 6.67598 17.3023 0 30 0C46.5488 0 60 13.4637 60 30.0279C60 43.6592 50.8186 55.6145 37.6465 59.0782C37.4791 59.1062 37.2837 59.1341 37.1163 59.1341Z" fill="#292D32"/>
<path d="M28.0186 60C27.9628 60 27.907 59.9721 27.8791 59.9721C24.8651 59.7765 21.907 59.1061 19.1163 58.0168C18.307 57.7095 17.7488 56.8994 17.7767 56.0335C17.7767 55.7821 17.8326 55.5307 17.9163 55.3073C18.3349 54.2458 19.5907 53.7151 20.6233 54.1061C23.0512 55.0559 25.5907 55.6145 28.1581 55.81C29.2465 55.8659 30.1116 56.8156 30.1116 57.933L30.0837 58.0447C30.0279 59.1341 29.107 60 28.0186 60ZM12.6419 53.9944C12.1674 53.9944 11.7209 53.8268 11.3302 53.5475C8.98605 51.648 6.92093 49.4413 5.24651 46.9832C4.99535 46.6201 4.85581 46.229 4.85581 45.81C4.85581 45.1117 5.1907 44.4693 5.77674 44.0782C6.69767 43.4357 8.03721 43.6871 8.67907 44.581V44.6089C8.70698 44.6369 8.73488 44.6927 8.76279 44.7207C10.214 46.8156 11.9721 48.6871 13.9535 50.2514C14.4279 50.6425 14.7349 51.229 14.7349 51.8715C14.7349 52.3464 14.5953 52.8212 14.2884 53.2123C13.8698 53.7151 13.2837 53.9944 12.6419 53.9944ZM3.32093 40.3631C2.4 40.3631 1.5907 39.7765 1.33953 38.9106C0.446512 36.0335 0 33.0447 0 30.0279V30C0.027907 28.8547 0.948837 27.933 2.09302 27.933C3.23721 27.933 4.18605 28.8827 4.18605 30.0279C4.18605 32.6536 4.57674 35.2235 5.33023 37.6536C5.38605 37.8771 5.41395 38.0726 5.41395 38.2961C5.41395 39.1899 4.82791 40 3.93488 40.2793C3.73954 40.3352 3.54419 40.3631 3.32093 40.3631Z" fill="#292D32"/>
</svg>

<svg xmlns="http://www.w3.org/2000/svg" width="60" height="60" fill="none"><path fill="#292D32" d="M37.116 59.134a2.111 2.111 0 0 1-2.037-1.564c-.307-1.117.363-2.263 1.507-2.57 11.33-2.989 19.228-13.268 19.228-25C55.814 15.754 44.233 4.162 30 4.162c-12.084 0-20.01 7.067-23.72 11.34h8.204a2.11 2.11 0 0 1 2.093 2.096c0 1.145-.921 2.123-2.093 2.123H2.12c-.14 0-.39-.028-.586-.084a2.51 2.51 0 0 1-.67-.335 1.84 1.84 0 0 1-.586-.643A2.258 2.258 0 0 1 0 17.793V4.888a2.11 2.11 0 0 1 2.093-2.095 2.11 2.11 0 0 1 2.093 2.095v6.676C8.735 6.676 17.302 0 30 0c16.549 0 30 13.464 30 30.028 0 13.631-9.181 25.587-22.353 29.05a3.408 3.408 0 0 1-.53.056ZM28.019 60c-.056 0-.112-.028-.14-.028a29.351 29.351 0 0 1-8.763-1.955c-.809-.308-1.367-1.118-1.34-1.984a2.1 2.1 0 0 1 .14-.726c.419-1.061 1.675-1.592 2.707-1.2a26.096 26.096 0 0 0 7.535 1.703c1.088.056 1.954 1.006 1.954 2.123l-.028.112A2.078 2.078 0 0 1 28.019 60Zm-15.377-6.006c-.475 0-.921-.167-1.312-.447-2.344-1.899-4.41-4.106-6.083-6.564-.252-.363-.391-.754-.391-1.173 0-.698.335-1.34.92-1.732.922-.642 2.261-.39 2.903.503v.028c.028.028.056.084.084.112a25.72 25.72 0 0 0 5.19 5.53c.475.392.782.978.782 1.62 0 .475-.14.95-.447 1.341a2.117 2.117 0 0 1-1.646.782ZM3.32 40.364c-.921 0-1.73-.587-1.981-1.453A29.93 29.93 0 0 1 0 30.028V30c.028-1.145.949-2.067 2.093-2.067a2.11 2.11 0 0 1 2.093 2.095c0 2.626.39 5.196 1.144 7.626.056.223.084.419.084.642 0 .894-.586 1.704-1.48 1.983-.194.056-.39.084-.613.084Z"/></svg>
